lib/brands/icons/hashnode.svg

<svg xmlns="http://www.w3.org/2000/svg" fill="none" aria-hidden="true" viewBox="0 0 48 48"><g id="hashnode-Icon"><path id="Vector" fill="#2962FF" fill-rule="evenodd" d="M8.4738 18.028C5.1754 21.3264 5.1754 26.6736 8.4738 29.9717L18.0283 39.5264C21.3267 42.8245 26.6738 42.8245 29.9719 39.5264L39.5267 29.9717C42.8248 26.6733 42.8248 21.3261 39.5267 18.028L29.9719 8.47357C26.6735 5.17548 21.3264 5.17548 18.0283 8.47357L8.4738 18.028ZM28.1802 28.1803C30.4891 25.8714 30.4891 22.1283 28.1802 19.8197C25.8716 17.5109 22.1285 17.5109 19.82 19.8197C17.5111 22.1286 17.5111 25.8714 19.82 28.1803C22.1289 30.4888 25.8716 30.4888 28.1805 28.1803H28.1802Z" clip-rule="evenodd"/></g></svg>

<svg xmlns="http://www.w3.org/2000/svg" fill="none" aria-hidden="true" viewBox="0 0 48 48"><path fill="#2962FF" fill-rule="evenodd" d="M8.474 18.028a8.445 8.445 0 0 0 0 11.944l9.554 9.554a8.445 8.445 0 0 0 11.944 0l9.555-9.554a8.446 8.446 0 0 0 0-11.944l-9.555-9.554a8.445 8.445 0 0 0-11.944 0l-9.554 9.554ZM28.18 28.18a5.912 5.912 0 1 0-8.36-8.36 5.912 5.912 0 0 0 8.36 8.36Z" clip-rule="evenodd"/></svg>
